_inc/systems/logos/zmachine.svg

<?xml version="1.0" encoding="utf-8"?>
<svg version="1.2" id="Ebene_1" x="0px" y="0px" viewBox="0 0 540 78.3" xmlns="http://www.w3.org/2000/svg">
  <path d="M 11.971 78.344 C 5.36 78.344 0 72.984 0 66.373 L 0 11.971 C 0 5.359 5.36 0 11.971 0 C 18.581 0 23.941 5.358 23.941 11.971 L 23.941 66.372 C 23.941 72.984 18.581 78.344 11.971 78.344 Z" id="path4" style="fill-opacity: 1; fill: rgb(255, 255, 255);"/>
  <path d="M 174.308 28.059 L 138.173 28.059 L 138.173 21.547 L 174.308 21.547 C 180.257 21.547 185.08 16.724 185.08 10.775 C 185.08 4.824 180.257 0.001 174.308 0.001 L 125.005 0.001 C 119.055 0.001 114.232 4.824 114.232 10.775 C 114.232 10.977 114.232 66.373 114.232 66.373 C 114.232 72.984 119.592 78.344 126.203 78.344 C 132.813 78.344 138.173 72.984 138.173 66.373 L 138.173 49.604 L 174.308 49.604 C 180.257 49.604 185.08 44.781 185.08 38.831 C 185.081 32.882 180.258 28.059 174.308 28.059 Z" id="path8" style="fill-opacity: 1; fill: rgb(255, 255, 255);"/>
  <path d="M 539.536 62.874 L 524.039 8.826 C 523.123 5.627 520.978 3.116 518.266 1.65 C 516.61 0.612 514.656 0.002 512.557 0.002 L 455.697 0.002 C 455.324 0.002 454.956 0.021 454.594 0.058 C 448.502 0.616 443.726 5.732 443.726 11.973 L 443.726 66.374 C 443.726 72.985 449.084 78.345 455.697 78.345 C 462.307 78.345 467.667 72.985 467.667 66.374 L 467.667 21.547 L 472.968 21.547 L 472.968 66.375 C 472.968 72.986 478.328 78.346 484.939 78.346 C 491.548 78.346 496.907 72.986 496.907 66.375 L 496.907 21.547 L 502.934 21.547 L 516.666 69.432 C 518.162 74.652 522.922 78.055 528.095 78.055 C 529.18 78.055 530.283 77.906 531.38 77.591 C 537.694 75.776 541.348 69.189 539.536 62.874 Z" id="path10" style="fill-opacity: 1; fill: rgb(255, 255, 255);"/>
  <path d="M 249.895 0.001 L 209.244 0.001 C 197.934 0.001 188.679 9.254 188.679 20.565 L 188.679 57.779 C 188.679 69.09 197.934 78.343 209.244 78.343 L 249.895 78.343 C 261.206 78.343 270.46 69.09 270.46 57.779 L 270.46 20.566 C 270.46 9.255 261.206 0.001 249.895 0.001 Z M 247.252 53.717 C 247.252 55.034 246.174 56.111 244.858 56.111 L 214.281 56.111 C 212.964 56.111 211.886 55.034 211.886 53.717 L 211.886 24.627 C 211.886 23.312 212.964 22.234 214.281 22.234 L 244.858 22.234 C 246.174 22.234 247.252 23.312 247.252 24.627 L 247.252 53.717 Z" id="path12" style="fill-opacity: 1; fill: rgb(255, 255, 255);"/>
  <path d="M 418.296 0.001 L 377.644 0.001 C 366.336 0.001 357.079 9.254 357.079 20.565 L 357.079 57.779 C 357.079 69.09 366.336 78.343 377.644 78.343 L 418.296 78.343 C 429.607 78.343 438.859 69.09 438.859 57.779 L 438.859 20.566 C 438.859 9.255 429.607 0.001 418.296 0.001 Z M 415.652 53.717 C 415.652 55.034 414.574 56.111 413.26 56.111 L 382.683 56.111 C 381.366 56.111 380.288 55.034 380.288 53.717 L 380.288 24.627 C 380.288 23.312 381.366 22.234 382.683 22.234 L 413.26 22.234 C 414.574 22.234 415.652 23.312 415.652 24.627 L 415.652 53.717 Z" id="path14" style="fill-opacity: 1; fill: rgb(255, 255, 255);"/>
  <path d="M 105.206 0.001 L 34.657 0.001 C 31.659 0.001 29.229 2.431 29.229 5.428 L 29.229 66.373 C 29.229 72.984 34.589 78.344 41.2 78.344 C 47.811 78.344 53.032 72.984 53.032 66.373 L 53.032 24.617 C 53.032 23.302 54.109 22.225 55.426 22.225 L 84.211 22.225 C 85.527 22.225 86.692 23.302 86.692 24.617 L 86.692 66.372 C 86.692 72.983 92.052 78.343 98.663 78.343 C 105.274 78.343 110.634 72.983 110.634 66.372 L 110.634 21.028 L 110.634 5.429 C 110.634 2.431 108.204 0.001 105.206 0.001 Z" id="path16" style="fill-opacity: 1; fill: rgb(255, 255, 255);"/>
  <path d="M 344.198 56.112 L 301.403 56.112 C 300.086 56.112 299.009 55.035 299.009 53.718 L 299.009 24.627 C 299.009 23.312 300.086 22.234 301.403 22.234 L 344.198 22.234 C 350.335 22.234 355.316 17.259 355.316 11.117 C 355.316 4.979 350.338 0 344.198 0 L 328.691 0 L 298.211 0 L 295.653 0 C 284.402 0 275.196 9.205 275.196 20.457 L 275.196 57.886 C 275.196 69.134 284.402 78.343 295.653 78.343 L 298.211 78.343 L 328.691 78.343 L 344.198 78.343 C 350.335 78.343 355.316 73.367 355.316 67.224 C 355.316 61.085 350.338 56.112 344.198 56.112 Z" id="path18" style="fill-opacity: 1; fill: rgb(255, 255, 255);"/>
</svg>

<svg xmlns="http://www.w3.org/2000/svg" viewBox="0 0 540 78.3"><path d="M11.97 78.34A11.97 11.97 0 0 1 0 66.37v-54.4a11.97 11.97 0 1 1 23.94 0v54.4c0 6.61-5.36 11.97-11.97 11.97M174.3 28.06h-36.13v-6.51h36.14a10.77 10.77 0 0 0 0-21.55H125a10.77 10.77 0 0 0-10.78 10.78v55.6a11.97 11.97 0 0 0 23.94 0V49.6h36.14a10.77 10.77 0 0 0 0-21.54m365.24 34.81-15.5-54.04a11.8 11.8 0 0 0-5.77-7.18A10.7 10.7 0 0 0 512.56 0H455.7q-.56 0-1.1.06a11.97 11.97 0 0 0-10.87 11.91v54.4a11.97 11.97 0 1 0 23.94 0V21.55h5.3v44.83a11.97 11.97 0 0 0 23.94 0V21.55h6.02l13.74 47.88a11.9 11.9 0 1 0 22.87-6.56M249.9 0h-40.66a20.6 20.6 0 0 0-20.56 20.57v37.2a20.6 20.6 0 0 0 20.56 20.57h40.66a20.6 20.6 0 0 0 20.56-20.56V20.57A20.63 20.63 0 0 0 249.9 0m-2.65 53.72a2.4 2.4 0 0 1-2.4 2.4h-30.57a2.4 2.4 0 0 1-2.4-2.4v-29.1a2.4 2.4 0 0 1 2.4-2.39h30.58a2.4 2.4 0 0 1 2.4 2.4zM418.3 0h-40.66a20.63 20.63 0 0 0-20.56 20.57v37.2a20.63 20.63 0 0 0 20.56 20.57h40.66a20.6 20.6 0 0 0 20.56-20.56V20.57A20.6 20.6 0 0 0 418.3 0m-2.65 53.72a2.4 2.4 0 0 1-2.39 2.4h-30.58a2.4 2.4 0 0 1-2.4-2.4v-29.1a2.4 2.4 0 0 1 2.4-2.39h30.58a2.4 2.4 0 0 1 2.4 2.4zM105.2 0H34.67c-3 0-5.43 2.43-5.43 5.43v60.94c0 6.61 5.36 11.97 11.97 11.97s11.83-5.36 11.83-11.97V24.62a2.4 2.4 0 0 1 2.4-2.4H84.2a2.5 2.5 0 0 1 2.48 2.4v41.75a11.97 11.97 0 0 0 23.94 0V5.43c0-3-2.43-5.43-5.42-5.43m239 56.11h-42.8a2.4 2.4 0 0 1-2.4-2.4V24.64a2.4 2.4 0 0 1 2.4-2.4h42.8a11.12 11.12 0 0 0 0-22.23h-48.55a20.5 20.5 0 0 0-20.45 20.46V57.9c0 11.24 9.2 20.45 20.45 20.45h48.54a11.12 11.12 0 0 0 0-22.23" style="fill-opacity:1;fill:#fff"/></svg>
